!!!SOCIAL_FUNCTION:	winter dance songs
!!!PDT:	1957
!!!OTL: No_22_A_Little_Golden_Calliste.krn
!!!LING_GROUP: Keresan
!!!LANG: Tone
!!!REG: Southwest
**kern
*staff1
=1-
*clefG2
*k[]
*M3/4
8G/L
8G/J
4G/
4G/
=2!|:
*M2/4
4g/
4a/
=3
4g/
4e/
=4
*M3/4
8.e/L
16d/Jk
8.e/L
16e/Jk
4d/
=5
*M2/4
4c/
8A/
8r
=6
4d/
4d/
=7
8.d/L
16c/Jk
8.A/L
16B/Jk
=8
8.c/L
16A/Jk
8.G/L
16c/Jk
=9
*M3/4
16c/LK
8.c/J
4A/
8G/
8r
=10
*M2/4
4A/
8F/L
8F/J
=11
*M3/4
4G/
4G/
8G/
8r
=12:|!
*M2/4
8a/L
16a/L
16g/JJ
8g/L
8g/J
=13
8a/L
16a/L
16g/JJ
8g/L
16g/L
16g/JJ
=14
*M3/4
8a/L
16a/L
16a/JJ
8b/L
16a/L
16a/JJ
8g/L
8g/J
=15
8g/L
16d/L
16d/JJ
8c/L
8c/J
8G/L
16G/L
16G/JJ
=16
*M2/4
8A/L
16.A/L
32G/JJk
8G/L
16G/Jk
16r
=17
8A/L
16A/L
16G/JJ
8G/L
16.G/L
32c/JJk
=18
8A/L
8A/J
16A/
16r
8a/
=19
16g/LL
16g/
16g/
16a/JJ
16e/LL
16e/
16e/
32d/L
32c/JJJ
=20
16c/LL
16c/J
8A/J
8A/L
16A/Jk
16r
=21
8A/L
16.A/L
32G/JJk
8G/L
16.G/L
32c/JJk
=22
*M7/8
8A/L
8A/
8A/
8A/
8A/
8A/
8A/J
==
*-
